resources/haticons/SVG/train.svg

<!-- Generated by IcoMoon.io -->
<svg version="1.1" xmlns="http://www.w3.org/2000/svg" width="24" height="24" viewBox="0 0 24 24">
<title>train</title>
<path d="M16.5 17.016q0.656 0 1.078-0.445t0.422-1.055-0.422-1.055-1.078-0.445-1.078 0.445-0.422 1.055 0.422 1.055 1.078 0.445zM12.984 9.984h5.016v-3.984h-5.016v3.984zM11.016 9.984v-3.984h-5.016v3.984h5.016zM7.5 17.016q0.656 0 1.078-0.445t0.422-1.055-0.422-1.055-1.078-0.445-1.078 0.445-0.422 1.055 0.422 1.055 1.078 0.445zM12 2.016q3.891 0 5.953 0.797t2.063 3.188v9.516q0 1.453-1.031 2.461t-2.484 1.008l1.5 1.5v0.516h-2.016l-1.969-2.016h-3.797l-1.969 2.016h-2.25v-0.516l1.5-1.5q-1.453 0-2.484-1.008t-1.031-2.461v-9.516q0-1.266 0.656-2.109t1.898-1.219 2.484-0.516 2.977-0.141z"></path>
</svg>

<svg xmlns="http://www.w3.org/2000/svg" width="24" height="24"><path d="M16.5 17.016q.656 0 1.078-.445T18 15.516t-.422-1.055-1.078-.445-1.078.445T15 15.516t.422 1.055 1.078.445zm-3.516-7.032H18V6h-5.016v3.984zm-1.968 0V6H6v3.984h5.016zM7.5 17.016q.656 0 1.078-.445T9 15.516t-.422-1.055-1.078-.445-1.078.445T6 15.516t.422 1.055 1.078.445zm4.5-15q3.891 0 5.953.797t2.063 3.188v9.516q0 1.453-1.031 2.461t-2.484 1.008l1.5 1.5v.516h-2.016l-1.969-2.016h-3.797L8.25 21.002H6v-.516l1.5-1.5q-1.453 0-2.484-1.008t-1.031-2.461V6.001q0-1.266.656-2.109t1.898-1.219 2.484-.516T12 2.016z"/></svg>
